X:1
T:Waterbank, 87.87 D
T:Waterbank, 87.87 D
T:Julia Randall Higinbotham (1850-1895)
T:Public Domain Courtesy of the Cyber Hymnal™
C:Julia Randall Higinbotham (1850-1895)
Z:Public Domain
Z:Courtesy of the Cyber Hymnal™
%%score ( 1 2 ) ( 3 4 )
L:1/8
Q:1/4=105
M:6/8
K:D
V:1 treble 
V:2 treble 
V:3 bass 
V:4 bass 
V:1
 [DF]2 E (DE)[DF] | [EA]2 [DG] [CG]2 [CE] | (DE)[DF] [FA]2 [FB] | A2 [CE] [DF]3 | %4
 [CE]2 [DA] [EA]2 [E^G] | [EA]2 [EB] [Ec]2 [Ad] | [Ae]2 [Ac] (cd)[FB] | [EA]2 [E^G] [EA]3 | %8
 [GA]2 [Gf] [Gf]2 [Ge] | [Fd]2 [Ac] [GB]2 [FA] | (AB)[EG] [DF]2 [DA] | [DB]2 [DE] [CE]3 | %12
 [FA]2 [Fd] [Gc]2 [Gd] | [Ge]2 [GA] [FA]2 !fermata![Gd] | [FA]2 [EB] [CE]2 [DA] | [DF]2 [CE] D3 |] %16
V:2
 x2 E D2 x | x6 | D2 x4 | A2 x4 | x6 | x6 | x3 F2 x | x6 | x6 | x6 | E2 x4 | x6 | x6 | x6 | x6 | %15
 x3 D3 |] %16
V:3
 [D,A,]2 [D,G,] [D,F,]2 [D,A,] | [A,,C]2 [A,,B,] [A,,A,]2 [A,,G,] | [D,F,]2 [D,A,] [D,D]2 [D,D] | %3
 [E,C]2 A, [D,A,]3 | [E,A,]2 [E,C] [E,B,]2 [E,B,] | [A,C]2 [G,B,] A,2 [F,A,] | %6
 [E,C]2 [E,E] [E,E]2 [D,D] | [E,C]2 [E,B,] [A,,C]3 | [A,C]2 A, (B,A,)[A,C] | %9
 [D,D]2 [D,D] [D,D]2 [D,D] | [C,A,]2 [C,A,] [D,A,]2 [F,A,] | G,2 [^G,B,] A,3 | %12
 [D,D]2 [D,A,] [E,A,]2 [D,B,] | [C,A,]2 [C,E] [D,D]2 !fermata![G,B,] | %14
 [A,D]2 [G,D] [G,A,]2 [F,A,] | [A,,A,]2 [A,,G,] [D,F,]3 |] %16
V:4
 x6 | x6 | x6 | x2 A, x3 | x6 | x3 A,2 x | x6 | x6 | x2 A, A,2 x | x6 | x6 | ^G,2 A,3 x | x6 | x6 | %14
 x6 | x6 |] %16

